X: 381
T:Eddie Moloney's (# 2)
M:4/4
L:1/8
R:reel
Z:Lesl Harker
K:D
f~f2e|:dF~F2 AzFA|defd egfe|dF~F2 AzFA|BGEF GABc:|
|:dzdf e~e2A|defd egfe|dzdF A{B}AFA|BGEF GABc:|d8||


